X:1
T:Skott-sara (pols)
R:rorospols
Z:from workshop with Annar Gjelten
Z:also 97. Kaeggleken in Pols i Rorostraktom
M:3/4
L:1/8
K:D
|:  "D"d>c A3 A | "A"d>c e3 A | "D"d>e fd g>f |  "A"e>d cB B>A
|   "D"A>G FE F>D | "G"GB "A"A4 | "D"d>e f/d/f "A"e>c | "D"d2 d4 :|
|:  "D"f2 d2 f>a | "A"ag e4 | "D"gf d2 e>f | "A"dc A4
|   "D"f2 d2 f>a | "A"ag e2 g>b | "D"bc d2 e>f | "A"dc "D"d4 :|
